X:1
T:Canticorum Jubilo
T:Canticorum Jubilo
T:Georg Friedrich Händel
T:"Joshua", 1748
C:Georg Friedrich Händel
%%score [ 1 2 3 4 ]
L:1/8
M:2/2
K:G
V:1 treble nm="Soprano"
V:2 treble nm="Alto"
V:3 treble-8 nm="Tenor"
V:4 bass nm="Bass"
V:1
 d4 (B3 c) | d4 G4 | (ABcd c2) B2 | A8 | (dcde d2) d2 | g4 d4 | (c2 B2) A4 | G8!fine! :| %8
w: Can- ti- *|co- rum|ju- * * * * bi-|lo,|Re- * * * * gi|ma- gno|psal- * li-|te.|
w: ||||||||
 (BABc B2) B2 | A4 G4 | (c2 B2 A2) G2 | F8 | (GFGA G2) G2 | e4 ^c4 | (d2 ed ^c3) d | d8!D.C.! |] %16
w: 1.Jam _ _ _ _ re-|sul- tent|mu- * * si-|ca,|Un- * * * * da|tel- lus,|si- * * * de-|ra.|
w: 2.Per- * * * * so-|nan- tes|or- * * ga-|nis!|Ju- * * * * bi-|la- te|plau- * * * di-|te.|
V:2
 G4 (G3 F) | G4 D4 | (FGAB A2) G2 | F8 | G6 G2 | G4 G4 | (F2 G4) F2 | G8 :| (GFGA G2) G2 | F4 E4 | %10
w: Can- ti- *|co- rum|ju- * * * * bi-|lo,|Re- gi|ma- gno|psal- * li-|te.|1.Jam _ _ _ _ re-|sul- tent|
w: ||||||||2.Per- * * * * so-|nan- tes|
 (A2 G2 F2) E2 | ^D8 | (E^DEF E2) E2 | G6 G2 | (F2 GF E2) A2 | A8 |] %16
w: mu- * * si-|ca,|Un- * * * * da|tel- lus,|si- * * * de-|ra.|
w: or- * * ga-|nis!|Ju- * * * * bi-|la- te|plau- * * * di-|te.|
V:3
 B4 (d3 c) | B4 d4 | (c2 A2 d2) d2 | d8 | d6 d2 | d4 B4 | (c2 d4) c2 | B8 :| d6 d2 | c4 B4 | %10
w: Can- ti- *|co- rum|ju- * * bi-|lo,|Re- gi|ma- gno|psal- * li-|te.|1.Jam re-|sul- tent|
w: ||||||||2.Per- so-|nan- tes|
 (^d2 e2 c2) B2 | B8 | B6 d2 | ^c4 e4 | (d2 B2 e2) e2 | f8 |] %16
w: mu- * * si-|ca,|Un- da|tel- lus,|si- * * de-|ra.|
w: or- * * ga-|nis!|Ju- bi-|la- te|plau- * * di-|te.|
V:4
 G,4 (B,3 A,) | G,4 B,4 | (A,3 G, F,2) G,2 | D,8 | (B,A,B,C B,2) B,2 | B,4 G,4 | (A,2 B,C D2) D,2 | %7
w: Can- ti- *|co- rum|ju- * * bi-|lo,|Re- * * * * gi|ma- gno|psal- * * * li-|
w: |||||||
 G,8 :| G,6 G,2 | D,4 E,4 | (F,2 G,2 A,2) E,2 | B,8 | E,6 B,2 | ^C4 A,4 | (B,2 G,2 A,2) A,2 | %15
w: te.|1.Jam re-|sul- tent|mu- * * si-|ca,|Un- da|tel- lus|si- * * de-|
w: |2.Per- so-|nan- tes|or- * * ga-|nis!|Ju- bi-|la- te|plau- * * di-|
 D,8 |] %16
w: ra.|
w: te.|

